ui/StatusQ/src/assets/img/icons/contact-book.svg

<svg fill="none" height="16" viewBox="0 0 15 16" width="15" xmlns="http://www.w3.org/2000/svg"><path clip-rule="evenodd" d="m14.6515 5.77187v.02823 4.4.0282.0001c0 .8161 0 1.4682-.0431 1.995-.0441.5405-.1368 1.006-.3548 1.4338-.3499.6868-.9083 1.2451-1.5951 1.5951-.4277.2179-.8933.3106-1.4337.3548-.5268.043-1.1789.043-1.99506.043h-.00001-.00001-.00001-.00002-.02823-2.4-.02823c-.81614 0-1.46829 0-1.99509-.043-.54045-.0442-1.00597-.1369-1.43374-.3548-.68679-.35-1.24517-.9083-1.59511-1.5951-.21796-.4278-.31064-.8933-.35479-1.4338-.03536-.4327-.04167-.95-.04279-1.5733h-.35025c-.35898 0-.649995-.291-.649995-.65 0-.35899.291015-.65.649995-.65h.35v-2.7h-.35c-.35898 0-.649995-.29102-.649995-.65 0-.35899.291015-.65.649995-.65h.35025c.00112-.6233.00743-1.1406.04279-1.57333.04415-.54045.13683-1.00597.35479-1.43374.34994-.68679.90832-1.24517 1.59511-1.595106.42777-.217961.89329-.310638 1.43374-.354795.5268-.043042 1.17895-.043037 1.99509-.043031h.02824 2.39999.02824c.8161-.000006 1.4683-.00001 1.9951.043031.5404.044157 1.006.136835 1.4337.354795.6868.349936 1.2452.908316 1.5951 1.595106.218.42777.3107.89329.3548 1.43374.0431.5268.0431 1.17893.0431 1.99505v.00001.00001.00001zm-12.00004 3.57823v-2.7h.35c.35899 0 .65-.29102.65-.65 0-.35899-.29101-.65-.65-.65h-.3497c.0012-.6194.00733-1.08692.03842-1.46747.03759-.46006.1084-.73545.21742-.94941.2253-.44218.58481-.80169 1.02699-1.02699.21396-.10902.48935-.17983.94941-.21742.46765-.03821 1.06666-.03871 1.91747-.03871h2.39999c.85084 0 1.44984.0005 1.91744.03871.4601.03759.7355.1084.9494.21742.4422.22531.8017.58481 1.027 1.02699.109.21396.1799.48935.2175.94941.0382.46765.0387 1.06666.0387 1.91747v4.4c0 .8508-.0005 1.4498-.0387 1.9175-.0376.46-.1085.7354-.2175.9494-.2253.4422-.5848.8017-1.027 1.027-.2139.109-.4893.1798-.9494.2174-.4676.0382-1.0666.0387-1.91744.0387h-2.4c-.8508 0-1.44981-.0005-1.91746-.0387-.46006-.0376-.73545-.1084-.94941-.2174-.44218-.2253-.80169-.5848-1.02699-1.027-.10902-.214-.17983-.4894-.21742-.9494-.03109-.3806-.03722-.8481-.03842-1.4675h.3497c.35899 0 .65-.291.65-.65 0-.35899-.29101-.65-.65-.65zm1.7001 1.9c0-1.60163 1.29838-2.9 2.9-2.9h1.5c1.60164 0 2.90004 1.29837 2.90004 2.9 0 .7732-.6268 1.4-1.4 1.4h-4.50004c-.7732 0-1.4-.6268-1.4-1.4zm2.9-1.6c-.88365 0-1.6.7163-1.6 1.6 0 .0552.04477.1.1.1h4.50004c.0552 0 .1-.0448.1-.1 0-.8837-.71638-1.6-1.60004-1.6zm-.1-4.15c0-.46944.38056-.85.85-.85s.85.38056.85.85-.38056.85-.85.85-.85-.38056-.85-.85zm.85-2.15c-1.18741 0-2.15.96259-2.15 2.15s.96259 2.15 2.15 2.15 2.15004-.96259 2.15004-2.15-.96263-2.15-2.15004-2.15z" fill="#647084" fill-rule="evenodd"/></svg>

<svg width="15" height="16" viewBox="0 0 15 16" fill="none" xmlns="http://www.w3.org/2000/svg">
<path fill-rule="evenodd" clip-rule="evenodd" d="M14.6515 5.77187V5.8001V10.2001V10.2283V10.2283V10.2284V10.2284V10.2284C14.6515 11.0445 14.6515 11.6966 14.6084 12.2234C14.5643 12.7639 14.4716 13.2294 14.2536 13.6572C13.9037 14.344 13.3453 14.9023 12.6585 15.2523C12.2308 15.4702 11.7652 15.5629 11.2248 15.6071C10.698 15.6501 10.0459 15.6501 9.22974 15.6501H9.22973H9.22972H9.22971H9.22969H9.20146H6.80146H6.77323C5.95709 15.6501 5.30494 15.6501 4.77814 15.6071C4.23769 15.5629 3.77217 15.4702 3.3444 15.2523C2.65761 14.9023 2.09923 14.344 1.74929 13.6572C1.53133 13.2294 1.43865 12.7639 1.3945 12.2234C1.35914 11.7907 1.35283 11.2734 1.35171 10.6501H1.00146C0.64248 10.6501 0.351465 10.3591 0.351465 10.0001C0.351465 9.64111 0.64248 9.3501 1.00146 9.3501H1.35146L1.35146 6.6501H1.00146C0.64248 6.6501 0.351465 6.35908 0.351465 6.0001C0.351465 5.64111 0.64248 5.3501 1.00146 5.3501H1.35171C1.35283 4.7268 1.35914 4.2095 1.3945 3.77677C1.43865 3.23632 1.53133 2.7708 1.74929 2.34303C2.09923 1.65624 2.65761 1.09786 3.3444 0.747924C3.77217 0.529963 4.23769 0.437286 4.77814 0.393129C5.30494 0.350087 5.95709 0.350092 6.77323 0.350098H6.80147H9.20146H9.2297C10.0458 0.350092 10.698 0.350088 11.2248 0.393129C11.7652 0.437286 12.2308 0.529964 12.6585 0.747924C13.3453 1.09786 13.9037 1.65624 14.2536 2.34303C14.4716 2.7708 14.5643 3.23632 14.6084 3.77677C14.6515 4.30357 14.6515 4.9557 14.6515 5.77182V5.77183V5.77184V5.77185V5.77187ZM2.65146 9.3501L2.65146 6.6501H3.00146C3.36045 6.6501 3.65146 6.35908 3.65146 6.0001C3.65146 5.64111 3.36045 5.3501 3.00146 5.3501H2.65176C2.65296 4.7307 2.65909 4.26318 2.69018 3.88263C2.72777 3.42257 2.79858 3.14718 2.9076 2.93322C3.1329 2.49104 3.49241 2.13153 3.93459 1.90623C4.14855 1.79721 4.42394 1.7264 4.884 1.68881C5.35165 1.6506 5.95066 1.6501 6.80147 1.6501L9.20146 1.6501C10.0523 1.6501 10.6513 1.6506 11.1189 1.68881C11.579 1.7264 11.8544 1.79721 12.0683 1.90623C12.5105 2.13154 12.87 2.49104 13.0953 2.93322C13.2043 3.14718 13.2752 3.42257 13.3128 3.88263C13.351 4.35028 13.3515 4.94929 13.3515 5.8001V10.2001C13.3515 11.0509 13.351 11.6499 13.3128 12.1176C13.2752 12.5776 13.2043 12.853 13.0953 13.067C12.87 13.5092 12.5105 13.8687 12.0683 14.094C11.8544 14.203 11.579 14.2738 11.1189 14.3114C10.6513 14.3496 10.0523 14.3501 9.20146 14.3501H6.80146C5.95066 14.3501 5.35165 14.3496 4.884 14.3114C4.42394 14.2738 4.14855 14.203 3.93459 14.094C3.49241 13.8687 3.1329 13.5092 2.9076 13.067C2.79858 12.853 2.72777 12.5776 2.69018 12.1176C2.65909 11.737 2.65296 11.2695 2.65176 10.6501H3.00146C3.36045 10.6501 3.65146 10.3591 3.65146 10.0001C3.65146 9.64111 3.36045 9.3501 3.00146 9.3501H2.65146ZM4.35156 11.2501C4.35156 9.64847 5.64994 8.3501 7.25156 8.3501H8.75156C10.3532 8.3501 11.6516 9.64847 11.6516 11.2501C11.6516 12.0233 11.0248 12.6501 10.2516 12.6501H5.75156C4.97836 12.6501 4.35156 12.0233 4.35156 11.2501ZM7.25156 9.6501C6.36791 9.6501 5.65156 10.3664 5.65156 11.2501C5.65156 11.3053 5.69633 11.3501 5.75156 11.3501H10.2516C10.3068 11.3501 10.3516 11.3053 10.3516 11.2501C10.3516 10.3664 9.63522 9.6501 8.75156 9.6501H7.25156ZM7.15156 5.5001C7.15156 5.03066 7.53212 4.6501 8.00156 4.6501C8.471 4.6501 8.85156 5.03066 8.85156 5.5001C8.85156 5.96954 8.471 6.3501 8.00156 6.3501C7.53212 6.3501 7.15156 5.96954 7.15156 5.5001ZM8.00156 3.3501C6.81415 3.3501 5.85156 4.31269 5.85156 5.5001C5.85156 6.68751 6.81415 7.6501 8.00156 7.6501C9.18897 7.6501 10.1516 6.68751 10.1516 5.5001C10.1516 4.31269 9.18897 3.3501 8.00156 3.3501Z" fill="#647084"/>
</svg>
